src/symbolic/devices/sim-card-symbolic.svg

<svg xmlns="http://www.w3.org/2000/svg" width="16" height="16"><path d="M15 4c0-2-2-2-2-2H3C1 2 1 4 1 4v8s0 2 2 2h10l2-2zm-4 6v1c0 1-1 1-1 1H9v-2zm0-5v1H9V4h1s1 0 1 1zm0 2v2H9V7zM8 4v8H6V4zm-3 6v2H4c-1 0-1-1-1-1v-1zm0-6v2H3V5c0-1 1-1 1-1zm0 3v2H3V7z" fill="#5d656b"/></svg>

<svg xmlns="http://www.w3.org/2000/svg" width="16" height="16" version="1.1">
 <path style="fill:#444444" d="M 15,4 C 15,2 13,2 13,2 H 3 C 1,2 1,4 1,4 V 12 C 1,12 1,14 3,14 H 13 L 15,12 Z M 11,10 V 11 C 11,12 10,12 10,12 H 9 V 10 Z M 11,5 V 6 H 9 V 4 H 10 C 10,4 11,4 11,5 Z M 11,7 V 9 H 9 V 7 Z M 8,4 V 12 H 6 V 4 Z M 5,10 V 12 H 4 C 3,12 3,11 3,11 V 10 Z M 5,4 V 6 H 3 V 5 C 3,4 4,4 4,4 Z M 5,7 V 9 H 3 V 7 Z"/>
</svg>
